X: 38245
T: Squirrel Up A Tree
R: jig
M: 6/8
K: Gmajor
|:d edc|BBB BBB|B2 A GAB|ccc ccc|c2 d efg|
fff fff|fed cBA|1 GBd e2 d|B2:|2 GB/c/d b2 a|g2||
|:B dga|bbb bbb|b2 a gfe|ddd ddd|d2 c Bdg|
fff fff|fed cBA|GBd e2 d|1 B2-:|2 G2||

